src/svg/no-data.svg

<svg
   xmlns="http://www.w3.org/2000/svg"
   width="96.999901"
   height="60.4734"
   viewBox="0 0 96.999901 60.4734"
   version="1.1"
   id="svg4554"
   style="fill:none">
  <g
     clip-path="url(#no-data-clip)"
     id="g4547"
     transform="translate(0,-18.2632)">
    <path
       d="M 11.9737,21.1049 2.84204,39.3681 H 30.2369 c 0,10.0867 8.1768,18.2631 18.2633,18.2631 10.0864,0 18.2632,-8.1764 18.2632,-18.2631 H 94.1583 L 85.0267,21.1049 Z"
       id="path4539"
       style="fill:#006eff" />
    <path
       d="M 85.0265,21.1049 H 48.5 v 36.5265 c 10.0865,0 18.2632,-8.1764 18.2632,-18.2631 h 27.3949 z"
       id="path4541"
       style="fill:#0050c3" />
    <path
       d="m 96.9991,39.3501 c -6e-4,-0.0832 -0.0048,-0.166 -0.0125,-0.2489 C 96.9847,39.0809 96.9822,39.0606 96.9797,39.0403 96.9716,38.9706 96.9612,38.9011 96.9479,38.8318 96.9447,38.8158 96.9428,38.7999 96.9396,38.784 96.924,38.7099 96.9043,38.6368 96.8827,38.5637 96.8744,38.536 96.8659,38.5084 96.857,38.4811 96.8369,38.4201 96.8147,38.3594 96.7903,38.2994 96.7795,38.2732 96.7685,38.2477 96.7571,38.2219 96.7387,38.18 96.7204,38.1385 96.6999,38.0974 L 87.5681,19.8342 c -0.4814,-0.9628 -1.4652,-1.571 -2.5417,-1.571 H 11.9736 c -1.0765,0 -2.06029,0.6082 -2.54169,1.571 L 0.300093,38.0974 C 0.279822,38.1385 0.261255,38.1802 0.242689,38.2219 0.231511,38.2477 0.220523,38.2732 0.209724,38.2994 0.185285,38.3594 0.163498,38.4201 0.143037,38.4811 0.134133,38.5085 0.125607,38.536 0.117271,38.5637 0.0956737,38.6368 0.0759706,38.7101 0.0604354,38.784 0.0572147,38.7999 0.0553202,38.8158 0.0520995,38.8318 0.0390273,38.9009 0.0282285,38.9704 0.0202714,39.0403 0.0178086,39.0606 0.0153457,39.0809 0.0134511,39.1012 0.00568358,39.1841 0.00132617,39.2669 9.47264e-4,39.3501 9.47264e-4,39.3562 0,39.362 0,39.3683 v 36.5265 c 0,1.5694 1.27236,2.8418 2.84179,2.8418 H 94.158 c 1.5695,0 2.8418,-1.2724 2.8418,-2.8418 V 39.3681 c 2e-4,-0.0061 -7e-4,-0.0119 -7e-4,-0.018 z M 13.73,23.9466 h 69.5404 l 6.2898,12.5797 H 66.7633 c -1.5694,0 -2.8417,1.2724 -2.8417,2.8418 0,8.5034 -6.9183,15.4213 -15.4215,15.4213 -8.5032,0 -15.4215,-6.9181 -15.4215,-15.4213 0,-1.5694 -1.2723,-2.8418 -2.8417,-2.8418 H 7.44019 Z"
       id="path4543"
       style="fill:#7cc8f0" />
    <path
       d="m 96.999,39.3501 c -6e-4,-0.0832 -0.0047,-0.166 -0.0125,-0.2489 C 96.9846,39.0809 96.9821,39.0606 96.9797,39.0403 96.9715,38.9706 96.9611,38.9011 96.9478,38.8318 96.9446,38.8158 96.9427,38.7999 96.9395,38.784 96.924,38.7099 96.9043,38.6368 96.8827,38.5637 96.8743,38.536 96.8658,38.5084 96.8569,38.4811 96.8368,38.4201 96.8147,38.3594 96.7902,38.2994 96.7794,38.2732 96.7684,38.2477 96.7571,38.2219 96.7387,38.18 96.7203,38.1385 96.6998,38.0974 L 87.568,19.8342 c -0.4814,-0.9628 -1.4652,-1.571 -2.5417,-1.571 H 48.5 v 5.6836 h 34.7701 l 6.2898,12.5797 H 66.7633 c -1.5695,0 -2.8418,1.2724 -2.8418,2.8418 0,8.5034 -6.9183,15.4212 -15.4215,15.4212 v 23.9469 h 45.6581 c 1.5695,0 2.8418,-1.2724 2.8418,-2.8418 V 39.3681 c 0,-0.0061 -9e-4,-0.0119 -9e-4,-0.018 z"
       id="path4545"
       style="fill:#4bb9ec" />
  </g>
  <defs
     id="defs4552">
    <clipPath
       id="no-data-clip">
      <rect
         width="97"
         height="97"
         id="rect4549"
         x="0"
         y="0"
         style="fill:#ffffff" />
    </clipPath>
  </defs>
</svg>

<svg width="97" height="97" viewBox="0 0 97 97" fill="none" xmlns="http://www.w3.org/2000/svg">
    <g clip-path="url(#no-data-clip)">
        <path d="M11.9737 21.1049L2.84204 39.3681H30.2369C30.2369 49.4548 38.4137 57.6312 48.5002 57.6312C58.5866 57.6312 66.7634 49.4548 66.7634 39.3681H94.1583L85.0267 21.1049H11.9737V21.1049Z"
              fill="#006EFF"/>
        <path d="M85.0265 21.1049H48.5V57.6314C58.5865 57.6314 66.7632 49.455 66.7632 39.3683H94.1581L85.0265 21.1049Z"
              fill="#0050C3"/>
        <path d="M96.9991 39.3501C96.9985 39.2669 96.9943 39.1841 96.9866 39.1012C96.9847 39.0809 96.9822 39.0606 96.9797 39.0403C96.9716 38.9706 96.9612 38.9011 96.9479 38.8318C96.9447 38.8158 96.9428 38.7999 96.9396 38.784C96.924 38.7099 96.9043 38.6368 96.8827 38.5637C96.8744 38.536 96.8659 38.5084 96.857 38.4811C96.8369 38.4201 96.8147 38.3594 96.7903 38.2994C96.7795 38.2732 96.7685 38.2477 96.7571 38.2219C96.7387 38.18 96.7204 38.1385 96.6999 38.0974L87.5681 19.8342C87.0867 18.8714 86.1029 18.2632 85.0264 18.2632H11.9736C10.8971 18.2632 9.91331 18.8714 9.43191 19.8342L0.300093 38.0974C0.279822 38.1385 0.261255 38.1802 0.242689 38.2219C0.231511 38.2477 0.220523 38.2732 0.209724 38.2994C0.185285 38.3594 0.163498 38.4201 0.143037 38.4811C0.134133 38.5085 0.125607 38.536 0.117271 38.5637C0.0956737 38.6368 0.0759706 38.7101 0.0604354 38.784C0.0572147 38.7999 0.0553202 38.8158 0.0520995 38.8318C0.0390273 38.9009 0.0282285 38.9704 0.0202714 39.0403C0.0178086 39.0606 0.0153457 39.0809 0.0134511 39.1012C0.00568358 39.1841 0.00132617 39.2669 0.000947264 39.3501C0.000947264 39.3562 0 39.362 0 39.3683V75.8948C0 77.4642 1.27236 78.7366 2.84179 78.7366H94.158C95.7275 78.7366 96.9998 77.4642 96.9998 75.8948V39.3681C97 39.362 96.9991 39.3562 96.9991 39.3501ZM13.73 23.9466H83.2704L89.5602 36.5263H66.7633C65.1939 36.5263 63.9216 37.7987 63.9216 39.3681C63.9216 47.8715 57.0033 54.7894 48.5001 54.7894C39.9969 54.7894 33.0786 47.8713 33.0786 39.3681C33.0786 37.7987 31.8063 36.5263 30.2369 36.5263H7.44019L13.73 23.9466Z"
              fill="#7CC8F0"/>
        <path d="M96.999 39.3501C96.9984 39.2669 96.9943 39.1841 96.9865 39.1012C96.9846 39.0809 96.9821 39.0606 96.9797 39.0403C96.9715 38.9706 96.9611 38.9011 96.9478 38.8318C96.9446 38.8158 96.9427 38.7999 96.9395 38.784C96.924 38.7099 96.9043 38.6368 96.8827 38.5637C96.8743 38.536 96.8658 38.5084 96.8569 38.4811C96.8368 38.4201 96.8147 38.3594 96.7902 38.2994C96.7794 38.2732 96.7684 38.2477 96.7571 38.2219C96.7387 38.18 96.7203 38.1385 96.6998 38.0974L87.568 19.8342C87.0866 18.8714 86.1028 18.2632 85.0263 18.2632H48.5V23.9468H83.2701L89.5599 36.5265H66.7633C65.1938 36.5265 63.9215 37.7989 63.9215 39.3683C63.9215 47.8717 57.0032 54.7895 48.5 54.7895V78.7364H94.1581C95.7276 78.7364 96.9999 77.464 96.9999 75.8946V39.3681C96.9999 39.362 96.999 39.3562 96.999 39.3501Z"
              fill="#4BB9EC"/>
    </g>
    <defs>
        <clipPath id="no-data-clip">
            <rect width="97" height="97" fill="white"/>
        </clipPath>
    </defs>
</svg>
